X:1
T:Blanchland Races,aka. RDO.39
T:Blanchland Races,aka. RDO.39
T:Timour The Tartar,aka. RDO.39
T:untitled
C:untitled
L:1/8
Q:1/4=100
M:2/4
K:A
V:1 treble 
V:1
 A(3c/B/A/ e/A/ (3c/B/A/ | e/A/a/A/ g/A/f/A/ | e/A/ (3c/B/A/ e/A/f/A/ | BcdB | %4
 A (3(c/B/A/) e/A/ (3(c/B/A/) | eagf | e/a/e/c/ e/g/e/c/ | B/A/B/c/ A2 :| ebeg | bd'c'b | %10
 A (3(c/B/A/) e/A/ (3(c/B/A/) | eagf | eeaa | eeaa | e/c/a/g/ f/e/d/c/ | %15
 B/A/G/F/"^D.CAPO" E/F/G/E/ |] %16

